X: 680
T: Hengjiang lou
L: 1/8
M: 2/4
K: F
d c A c [I:setbarnb 1]| 
d4 | 
f2f2 | 
d f d c | 
c A G A | 
c4 | 
d f d c | 
cA2G | 
A4 | 
A G F G | 
A3z | 
c d c A | 
G A G F | 
E D C D | 
F4 | 
G A G F | 
FD2C | 
D4 |]

@@@ Tune index: 9554
